src/icons/filter.svg

<svg width="24" height="24" viewBox="0 0 24 24" fill="none" xmlns="http://www.w3.org/2000/svg">
<path fill-rule="evenodd" clip-rule="evenodd" d="M15 13L22 6V2H2V6L9 13V21L15 23V13ZM13 20.2251V13C13 12.4696 13.2107 11.9609 13.5858 11.5858L20 5.17157V4H4V5.17157L10.4142 11.5858C10.7893 11.9609 11 12.4696 11 13V19.5585L13 20.2251Z" fill="black"/>
</svg>

<svg xmlns="http://www.w3.org/2000/svg" width="24" height="24" fill="none"><path fill="currentColor" fill-rule="evenodd" d="m15 13 7-7V2H2v4l7 7v8l6 2zm-2 7.225V13a2 2 0 0 1 .586-1.414L20 5.172V4H4v1.172l6.414 6.414A2 2 0 0 1 11 13v6.558z" clip-rule="evenodd"/></svg>
